X:1
T:Joy! Joy! Joy!
T:Joy! Joy! Joy!
T:Warren Collins
T:C. W. Byron, 1897
T:Public Domain Courtesy of the Cyber Hymnal™
T:Public Domain Courtesy of the Cyber Hymnal™
C:Warren Collins
Z:Public Domain
Z:Courtesy of the Cyber Hymnal™
%%score ( 1 2 ) ( 3 4 )
L:1/8
Q:1/4=105
M:4/4
K:F
V:1 treble 
V:2 treble 
V:3 bass 
V:4 bass 
V:1
 C | [FA]2 [FA]2 [FA]3 [FA] | [FA]>[FA] [F^G]>[FA] [Fd]2 [Fc]2 | [EG]2 [EG]2 [EG]4 | %4
w: 1.~When|lost in sin, I|came to Christ my Sav- ior,|Who for me|
w: 2.~The|world quite failed to|give me sa- tis- fac- tion,|Though its vain|
w: 3.~And|ev- er since I|learned to live for Je- sus,|Joy and peace|
w: 4.~Poor|wand- ering one, a-|stray in sin and sad- ness,|Come to Christ|
 [Fc]>[Fc] [EB]>[EB] [FA]3 [FA] | [FA]<[FA] [F^G]>[FA] [Fd]2 [Fc]>[Fc] | %6
w: on the cross did die; He|ban- ished sin and sad- ness, And|
w: plea- sures I did try; An|ach- ing void they gave me, From|
w: came with- out al- loy; The|De- vil oft has tried me, but|
w: who can sin de- stroy; Al-|though you are so wretch- ed, His|
 [GB]>[GB] [^FA]>[GB] [ce]2 ([Bd][Bd]) | [Ac]>[Ac] [Be]>[Bd] [Ac]>[GB] ([FA][EG]) |S F2 [FA]2 F4 || %9
w: gave me joy and glad- ness; *|Now I’m run- ning o- ver with *|joy! joy! joy!|
w: which the Lord did save me; *|Now I’m run- ning o- ver with *|joy! joy! joy!|
w: Je- sus Christ in- side me *|Keeps me run- ning o- ver with *|joy! joy! joy!|
w: arm is now out- stretch- ed,~To *|save your soul and give you perfect *|joy! joy! joy!|
[M:6/8]"^Refrain" f3 c3 | A3 F3 | [EG][EG][EG] [EG][FA][EG] | ([CF]3 C3) | f3 c3 | A3 F3 | %15
w: ||||||
w: Glo- ry,|glo- ry,|Je- sus is com- ing a-|gain, *|Glo- ry,|glo- ry,|
w: ||||||
w: ||||||
 [EG][EG][EG] [EG][FA][EG] | F3- F2 C!fine! | [EG]<[EG][^D^F] [EG]2 C | [FA]<[FA][F^G] [FA]2 [FA] | %19
w: ||||
w: Je- sus is com- ing a-|gain; * He’s|com- ing a- gain, for-|ev- er to reign, He’s|
w: ||||
w: ||||
 [F=B]<[FB][FA] [Ge]2 [Fd] | ([Ec]3- z de)!D.S.! |] %21
w: ||
w: com- ing as king to|reign. * *|
w: ||
w: ||
V:2
 C | x8 | x8 | x8 | x8 | x8 | x8 | x8 | F2 F4 x2 ||[M:6/8] f3 c3 | A3 F3 | x6 | x3 C3 | f3 c3 | %14
 A3 F3 | x6 | F3- F2 C | x5 C | x6 | x6 | x3 [Ec]3 |] %21
V:3
 [F,A,] | [F,C]2 [F,C]2 [F,C]3 [F,C] | [F,C]>[F,C] [F,=B,]>[F,C] [F,_B,]2 [F,A,]2 | %3
 [C,C]2 [C,C]2 [C,C]4 | [A,C]>[A,C] [G,C]>[G,C] [F,C]3 [F,C] | %5
 [F,C]<[F,C] [F,=B,]>[F,C] [F,_B,]2 [F,A,]>[F,A,] | [C,C]>[C,C] [C,C]>[C,C] [C,G,]2 ([C,C][C,C]) | %7
 [F,C]>[F,C] [C,C]>[C,C] [C,C]>[C,C] ([C,C][C,B,]) | [F,A,]2 [F,C]2 [F,A,]4 || %9
[M:6/8] [F,F]3 [C,C]3 | [A,,A,]3 [F,,F,]3 | [C,B,][C,B,][C,B,] [C,B,][C,C][C,B,] | [F,A,]6 | %13
 [F,F]3 [C,C]3 | [A,,A,]3 [F,,F,]3 | [C,B,][C,B,][C,B,] [C,B,][C,C][C,B,] | %16
 [F,A,]3- [F,A,]2 [F,A,] | [C,C]<[C,C][C,C] [C,C]2 [C,C] | [F,C]<[F,C][F,=B,] [F,C]2 [F,F] | %19
 [F,C]<[F,C][F,=B,] [F,C]2 [F,F] | ([C,C]3- z [D,D][E,E]) |] %21
V:4
 x | x8 | x8 | x8 | x8 | x8 | x8 | x8 | x8 ||[M:6/8] x6 | x6 | x6 | x6 | x6 | x6 | x6 | x6 | x6 | %18
 x6 | x6 | x3 [C,C]2 x |] %21

